icon-svg/tesla-start.svg

<svg xmlns="http://www.w3.org/2000/svg" fill="#44739e" viewBox="0 0 24 24"><path d="M8.88 7.715c.143-.114.282-.234.433-.339a4.767 4.767 0 0 1 5.647.216 1.56 1.56 0 0 0 .672.366.673.673 0 0 0 .661-.164.508.508 0 0 0 .068-.6 1.017 1.017 0 0 0-.323-.424 6.862 6.862 0 0 0-4.1-1.462 6.28 6.28 0 0 0-4.022 1.546.96.96 0 0 0-.315.453.513.513 0 0 0 .511.67 1.072 1.072 0 0 0 .768-.262m8.878-3.521A8.6 8.6 0 0 0 11.886 2a8.816 8.816 0 0 0-5.575 1.975 1.66 1.66 0 0 0-.224.211.5.5 0 0 0-.1.591.629.629 0 0 0 .558.321 1.273 1.273 0 0 0 .9-.325 7.248 7.248 0 0 1 9.166.165 1.97 1.97 0 0 0 .31.224.832.832 0 0 0 1.04-.059c.206-.249.13-.609-.203-.909m-3.695 4.511H9.937a3.107 3.107 0 0 0-3.107 3.108v7.08A3.107 3.107 0 0 0 9.937 22h4.126a3.107 3.107 0 0 0 3.107-3.107v-7.08a3.107 3.107 0 0 0-3.107-3.108M12 14.04a1.176 1.176 0 1 1 1.176-1.176A1.176 1.176 0 0 1 12 14.04"/></svg>

<?xml version="1.0" encoding="UTF-8"?>
<svg width="24px" fill="#44739e" height="24px" viewBox="0 0 24 24" version="1.1" xmlns="http://www.w3.org/2000/svg" xmlns:xlink="http://www.w3.org/1999/xlink">
            <path d="M 8.88,7.715 C 9.023,7.601 9.162,7.481 9.313,7.376 a 4.767,4.767 0 0 1 5.647,0.216 1.562,1.562 0 0 0 0.672,0.366 0.673,0.673 0 0 0 0.661,-0.164 0.508,0.508 0 0 0 0.068,-0.6 A 1.017,1.017 0 0 0 16.038,6.77 6.862,6.862 0 0 0 11.938,5.308 6.281,6.281 0 0 0 7.916,6.854 0.96,0.96 0 0 0 7.601,7.307 0.513,0.513 0 0 0 8.112,7.977 1.072,1.072 0 0 0 8.88,7.715 Z M 17.758,4.194 A 8.6,8.6 0 0 0 11.886,2 8.816,8.816 0 0 0 6.311,3.975 1.663,1.663 0 0 0 6.087,4.186 a 0.5,0.5 0 0 0 -0.1,0.591 0.629,0.629 0 0 0 0.558,0.321 1.273,1.273 0 0 0 0.9,-0.325 7.248,7.248 0 0 1 9.166,0.165 1.973,1.973 0 0 0 0.31,0.224 0.832,0.832 0 0 0 1.04,-0.059 C 18.167,4.854 18.091,4.494 17.758,4.194 Z M 14.063,8.705 H 9.937 A 3.107,3.107 0 0 0 6.83,11.813 v 7.08 A 3.107,3.107 0 0 0 9.937,22 h 4.126 a 3.107,3.107 0 0 0 3.107,-3.107 v -7.08 A 3.107,3.107 0 0 0 14.063,8.705 Z M 12,14.04 A 1.176,1.176 0 1 1 13.176,12.864 1.176,1.176 0 0 1 12,14.04 Z"/>

</svg>
